svg/color/bino.svg

<?xml version="1.0" encoding="UTF-8" ?>
<!DOCTYPE svg PUBLIC "-//W3C//DTD SVG 1.1//EN" "http://www.w3.org/Graphics/SVG/1.1/DTD/svg11.dtd">
<svg width="250pt" height="250pt" viewBox="0 0 250 250" version="1.1" xmlns="http://www.w3.org/2000/svg">
<g id="#ffffffff">
<path fill="#ffffff" opacity="1.00" d=" M 0.00 0.00 L 250.00 0.00 L 250.00 250.00 L 0.00 250.00 L 0.00 0.00 M 72.14 39.20 C 69.56 39.60 67.51 41.63 66.71 44.06 C 66.42 46.99 67.62 49.77 68.32 52.56 C 77.22 51.92 86.11 52.96 94.96 53.81 C 101.86 54.81 108.95 55.47 115.39 58.32 C 104.30 58.49 93.22 57.00 82.10 57.23 C 78.11 57.68 74.32 59.16 70.37 59.85 C 72.70 71.10 73.94 82.53 74.18 94.01 C 74.01 104.56 72.92 115.06 71.26 125.47 C 62.33 123.02 53.68 119.62 45.31 115.66 C 42.46 114.35 39.43 112.94 36.19 113.36 C 32.84 113.49 30.13 116.76 30.19 120.04 C 29.94 124.52 32.57 128.45 35.14 131.88 C 46.82 146.24 63.71 155.15 80.90 161.21 C 106.00 169.90 133.71 172.05 159.51 165.22 C 179.26 159.91 197.74 148.46 209.68 131.66 C 212.10 128.44 214.53 125.02 215.27 120.97 C 216.11 117.27 212.77 113.33 208.99 113.51 C 205.60 113.45 202.48 115.03 199.44 116.33 C 191.46 120.11 183.09 122.97 174.71 125.71 C 169.60 101.97 170.46 77.03 176.85 53.62 C 177.82 50.06 179.51 46.36 178.35 42.63 C 177.30 40.63 175.28 39.41 173.08 39.09 C 139.93 31.99 105.27 31.98 72.14 39.20 M 210.81 179.71 C 207.86 178.37 205.03 176.75 201.99 175.63 C 201.20 175.96 199.63 176.61 198.84 176.94 C 202.02 178.59 205.32 179.96 208.57 181.46 C 212.46 182.87 213.78 187.16 216.22 190.10 C 219.20 186.87 213.94 184.01 213.55 180.65 C 213.42 176.29 213.71 171.91 213.37 167.56 C 209.02 170.20 211.18 175.57 210.81 179.71 M 36.93 171.23 C 34.43 177.26 31.34 183.03 28.97 189.12 C 32.85 190.60 36.84 193.70 41.19 192.22 C 44.55 190.78 43.82 186.78 43.17 183.94 C 44.57 182.77 46.94 181.95 46.75 179.76 C 47.49 174.25 40.57 173.29 36.93 171.23 M 59.78 183.04 C 57.35 188.64 55.60 194.51 53.30 200.17 C 53.97 200.32 55.30 200.62 55.96 200.76 C 57.97 194.34 60.82 188.20 62.48 181.68 C 61.80 182.02 60.45 182.70 59.78 183.04 M 184.98 183.39 C 187.61 189.45 190.65 195.32 193.12 201.45 C 196.97 199.41 201.82 198.48 204.26 194.52 C 200.85 195.02 197.75 196.55 194.64 197.93 C 192.20 193.03 189.97 188.04 187.65 183.08 C 186.99 183.16 185.65 183.31 184.98 183.39 M 69.28 205.57 C 70.23 205.62 71.18 205.68 72.13 205.73 C 73.31 200.66 74.71 195.64 75.97 190.59 C 78.21 195.93 79.70 201.54 81.88 206.89 C 82.39 208.51 84.02 209.20 85.25 210.18 C 87.57 203.78 88.82 197.07 90.74 190.56 C 89.80 190.49 88.86 190.42 87.91 190.36 C 86.69 195.40 85.40 200.41 84.07 205.42 C 81.84 199.94 80.14 194.27 78.21 188.68 C 77.73 187.17 75.83 186.91 74.70 186.03 C 72.46 192.41 71.18 199.08 69.28 205.57 M 162.57 190.62 C 155.39 193.77 155.53 205.18 162.31 208.66 C 168.60 212.26 177.94 207.53 177.56 199.94 C 178.18 192.41 169.08 186.63 162.57 190.62 M 106.59 193.76 C 100.07 196.01 98.25 205.31 102.74 210.25 C 106.15 214.12 112.60 214.77 116.69 211.61 C 121.68 207.97 122.02 199.68 117.40 195.60 C 114.50 192.98 110.20 192.86 106.59 193.76 M 133.20 194.55 C 133.56 201.49 133.18 208.55 134.85 215.35 C 137.80 212.86 136.17 208.84 136.24 205.54 C 139.29 205.20 142.94 205.58 145.28 203.19 C 147.78 200.46 146.36 195.30 142.72 194.48 C 139.56 194.13 136.37 194.46 133.20 194.55 Z" />
<path fill="#ffffff" opacity="1.00" d=" M 72.72 120.37 C 105.72 127.50 140.08 127.22 173.23 121.24 C 173.48 124.51 174.55 127.70 174.51 130.99 C 173.57 133.17 171.75 134.92 169.35 135.31 C 138.99 142.36 107.04 142.37 76.66 135.41 C 74.18 135.01 71.47 133.50 71.27 130.71 C 71.10 127.21 72.31 123.82 72.72 120.37 Z" />
<path fill="#ffffff" opacity="1.00" d=" M 38.20 174.42 C 40.06 175.30 42.10 175.97 43.64 177.38 C 43.77 178.76 43.63 180.15 43.55 181.53 C 40.94 181.77 38.48 180.95 36.11 179.96 C 36.75 178.09 37.47 176.25 38.20 174.42 Z" />
<path fill="#ffffff" opacity="1.00" d=" M 34.92 181.93 C 37.44 183.20 41.70 184.24 41.31 187.79 C 39.65 191.73 35.00 189.03 32.18 188.11 C 33.06 186.04 34.00 183.99 34.92 181.93 Z" />
<path fill="#ffffff" opacity="1.00" d=" M 164.43 192.42 C 167.48 191.67 171.27 191.99 173.07 194.94 C 177.09 199.60 173.53 208.25 166.96 207.42 C 159.36 207.36 157.45 194.91 164.43 192.42 Z" />
<path fill="#ffffff" opacity="1.00" d=" M 108.25 195.83 C 111.90 194.59 116.39 196.74 117.48 200.49 C 118.24 203.96 117.64 208.44 114.16 210.23 C 110.87 212.31 106.04 211.05 104.09 207.74 C 102.02 203.55 103.24 197.23 108.25 195.83 Z" />
<path fill="#ffffff" opacity="1.00" d=" M 135.66 196.67 C 138.26 196.86 141.45 195.82 143.47 198.00 C 143.64 199.51 144.00 201.35 142.49 202.33 C 140.31 202.80 138.06 202.76 135.84 202.86 C 135.76 200.79 135.69 198.73 135.66 196.67 Z" />
</g>
<g id="#343434ff">
<path fill="#343434" opacity="1.00" d=" M 72.14 39.20 C 105.27 31.98 139.93 31.99 173.08 39.09 C 175.28 39.41 177.30 40.63 178.35 42.63 C 179.51 46.36 177.82 50.06 176.85 53.62 C 170.46 77.03 169.60 101.97 174.71 125.71 C 183.09 122.97 191.46 120.11 199.44 116.33 C 202.48 115.03 205.60 113.45 208.99 113.51 C 212.77 113.33 216.11 117.27 215.27 120.97 C 214.53 125.02 212.10 128.44 209.68 131.66 C 197.74 148.46 179.26 159.91 159.51 165.22 C 133.71 172.05 106.00 169.90 80.90 161.21 C 63.71 155.15 46.82 146.24 35.14 131.88 C 32.57 128.45 29.94 124.52 30.19 120.04 C 30.13 116.76 32.84 113.49 36.19 113.36 C 39.43 112.94 42.46 114.35 45.31 115.66 C 53.68 119.62 62.33 123.02 71.26 125.47 C 72.92 115.06 74.01 104.56 74.18 94.01 C 73.94 82.53 72.70 71.10 70.37 59.85 C 74.32 59.16 78.11 57.68 82.10 57.23 C 93.22 57.00 104.30 58.49 115.39 58.32 C 108.95 55.47 101.86 54.81 94.96 53.81 C 86.11 52.96 77.22 51.92 68.32 52.56 C 67.62 49.77 66.42 46.99 66.71 44.06 C 67.51 41.63 69.56 39.60 72.14 39.20 M 72.72 120.37 C 72.31 123.82 71.10 127.21 71.27 130.71 C 71.47 133.50 74.18 135.01 76.66 135.41 C 107.04 142.37 138.99 142.36 169.35 135.31 C 171.75 134.92 173.57 133.17 174.51 130.99 C 174.55 127.70 173.48 124.51 173.23 121.24 C 140.08 127.22 105.72 127.50 72.72 120.37 Z" />
<path fill="#343434" opacity="1.00" d=" M 210.81 179.71 C 211.18 175.57 209.02 170.20 213.37 167.56 C 213.71 171.91 213.42 176.29 213.55 180.65 C 213.94 184.01 219.20 186.87 216.22 190.10 C 213.78 187.16 212.46 182.87 208.57 181.46 C 205.32 179.96 202.02 178.59 198.84 176.94 C 199.63 176.61 201.20 175.96 201.99 175.63 C 205.03 176.75 207.86 178.37 210.81 179.71 Z" />
<path fill="#343434" opacity="1.00" d=" M 36.93 171.23 C 40.57 173.29 47.49 174.25 46.75 179.76 C 46.94 181.95 44.57 182.77 43.17 183.94 C 43.82 186.78 44.55 190.78 41.19 192.22 C 36.84 193.70 32.85 190.60 28.97 189.12 C 31.34 183.03 34.43 177.26 36.93 171.23 M 38.20 174.42 C 37.47 176.25 36.75 178.09 36.11 179.96 C 38.48 180.95 40.94 181.77 43.55 181.53 C 43.63 180.15 43.77 178.76 43.64 177.38 C 42.10 175.97 40.06 175.30 38.20 174.42 M 34.92 181.93 C 34.00 183.99 33.06 186.04 32.18 188.11 C 35.00 189.03 39.65 191.73 41.31 187.79 C 41.70 184.24 37.44 183.20 34.92 181.93 Z" />
<path fill="#343434" opacity="1.00" d=" M 59.78 183.04 C 60.45 182.70 61.80 182.02 62.48 181.68 C 60.82 188.20 57.97 194.34 55.96 200.76 C 55.30 200.62 53.97 200.32 53.30 200.17 C 55.60 194.51 57.35 188.64 59.78 183.04 Z" />
<path fill="#343434" opacity="1.00" d=" M 184.98 183.39 C 185.65 183.31 186.99 183.16 187.65 183.08 C 189.97 188.04 192.20 193.03 194.64 197.93 C 197.75 196.55 200.85 195.02 204.26 194.52 C 201.82 198.48 196.97 199.41 193.12 201.45 C 190.65 195.32 187.61 189.45 184.98 183.39 Z" />
<path fill="#343434" opacity="1.00" d=" M 69.28 205.57 C 71.18 199.08 72.46 192.41 74.70 186.03 C 75.83 186.91 77.73 187.17 78.21 188.68 C 80.14 194.27 81.84 199.94 84.07 205.42 C 85.40 200.41 86.69 195.40 87.91 190.36 C 88.86 190.42 89.80 190.49 90.74 190.56 C 88.82 197.07 87.57 203.78 85.25 210.18 C 84.02 209.20 82.39 208.51 81.88 206.89 C 79.70 201.54 78.21 195.93 75.97 190.59 C 74.71 195.64 73.31 200.66 72.13 205.73 C 71.18 205.68 70.23 205.62 69.28 205.57 Z" />
<path fill="#343434" opacity="1.00" d=" M 162.57 190.62 C 169.08 186.63 178.18 192.41 177.56 199.94 C 177.94 207.53 168.60 212.26 162.31 208.66 C 155.53 205.18 155.39 193.77 162.57 190.62 M 164.43 192.42 C 157.45 194.91 159.36 207.36 166.96 207.42 C 173.53 208.25 177.09 199.60 173.07 194.94 C 171.27 191.99 167.48 191.67 164.43 192.42 Z" />
<path fill="#343434" opacity="1.00" d=" M 106.59 193.76 C 110.20 192.86 114.50 192.98 117.40 195.60 C 122.02 199.68 121.68 207.97 116.69 211.61 C 112.60 214.77 106.15 214.12 102.74 210.25 C 98.25 205.31 100.07 196.01 106.59 193.76 M 108.25 195.83 C 103.24 197.23 102.02 203.55 104.09 207.74 C 106.04 211.05 110.87 212.31 114.16 210.23 C 117.64 208.44 118.24 203.96 117.48 200.49 C 116.39 196.74 111.90 194.59 108.25 195.83 Z" />
<path fill="#343434" opacity="1.00" d=" M 133.20 194.55 C 136.37 194.46 139.56 194.13 142.72 194.48 C 146.36 195.30 147.78 200.46 145.28 203.19 C 142.94 205.58 139.29 205.20 136.24 205.54 C 136.17 208.84 137.80 212.86 134.85 215.35 C 133.18 208.55 133.56 201.49 133.20 194.55 M 135.66 196.67 C 135.69 198.73 135.76 200.79 135.84 202.86 C 138.06 202.76 140.31 202.80 142.49 202.33 C 144.00 201.35 143.64 199.51 143.47 198.00 C 141.45 195.82 138.26 196.86 135.66 196.67 Z" />
</g>
</svg>

<?xml version="1.0" encoding="utf-8"?>
<!-- Generator: Adobe Illustrator 26.0.3, SVG Export Plug-In . SVG Version: 6.00 Build 0)  -->
<svg version="1.1" id="Layer_1" xmlns="http://www.w3.org/2000/svg" xmlns:xlink="http://www.w3.org/1999/xlink" x="0px" y="0px"
	 viewBox="0 0 250 250" style="enable-background:new 0 0 250 250;" xml:space="preserve">
<style type="text/css">
	.st0{fill:#FFFFFF;}
	.st1{fill:#343434;}
</style>
<circle class="st0" cx="125" cy="125.5" r="125"/>
<g id="_x23_ffffffff">
	<path class="st0" d="M72.7,120.4c33,7.1,67.4,6.8,100.5,0.9c0.2,3.3,1.3,6.5,1.3,9.8c-0.9,2.2-2.8,3.9-5.2,4.3
		c-30.4,7.1-62.3,7.1-92.7,0.1c-2.5-0.4-5.2-1.9-5.4-4.7C71.1,127.2,72.3,123.8,72.7,120.4z"/>
	<path class="st0" d="M38.2,174.4c1.9,0.9,3.9,1.6,5.4,3c0.1,1.4,0,2.8-0.1,4.1c-2.6,0.2-5.1-0.6-7.4-1.6
		C36.8,178.1,37.5,176.2,38.2,174.4z"/>
	<path class="st0" d="M34.9,181.9c2.5,1.3,6.8,2.3,6.4,5.9c-1.7,3.9-6.3,1.2-9.1,0.3C33.1,186,34,184,34.9,181.9z"/>
	<path class="st0" d="M164.4,192.4c3.1-0.8,6.8-0.4,8.6,2.5c4,4.7,0.5,13.3-6.1,12.5C159.4,207.4,157.4,194.9,164.4,192.4z"/>
	<path class="st0" d="M108.2,195.8c3.7-1.2,8.1,0.9,9.2,4.7c0.8,3.5,0.2,7.9-3.3,9.7c-3.3,2.1-8.1,0.8-10.1-2.5
		C102,203.6,103.2,197.2,108.2,195.8z"/>
	<path class="st0" d="M135.7,196.7c2.6,0.2,5.8-0.8,7.8,1.3c0.2,1.5,0.5,3.4-1,4.3c-2.2,0.5-4.4,0.4-6.7,0.5
		C135.8,200.8,135.7,198.7,135.7,196.7z"/>
</g>
<g id="_x23_343434ff">
	<path class="st1" d="M72.1,39.2c33.1-7.2,67.8-7.2,100.9-0.1c2.2,0.3,4.2,1.5,5.3,3.5c1.2,3.7-0.5,7.4-1.5,11
		c-6.4,23.4-7.2,48.4-2.1,72.1c8.4-2.7,16.8-5.6,24.7-9.4c3-1.3,6.2-2.9,9.6-2.8c3.8-0.2,7.1,3.8,6.3,7.5c-0.7,4-3.2,7.5-5.6,10.7
		c-11.9,16.8-30.4,28.2-50.2,33.6c-25.8,6.8-53.5,4.7-78.6-4c-17.2-6.1-34.1-15-45.8-29.3c-2.6-3.4-5.2-7.4-4.9-11.8
		c-0.1-3.3,2.6-6.6,6-6.7c3.2-0.4,6.3,1,9.1,2.3c8.4,4,17,7.4,26,9.8c1.7-10.4,2.8-20.9,2.9-31.5c-0.2-11.5-1.5-22.9-3.8-34.2
		c3.9-0.7,7.7-2.2,11.7-2.6c11.1-0.2,22.2,1.3,33.3,1.1c-6.4-2.8-13.5-3.5-20.4-4.5c-8.8-0.9-17.7-1.9-26.6-1.2
		c-0.7-2.8-1.9-5.6-1.6-8.5C67.5,41.6,69.6,39.6,72.1,39.2 M72.7,120.4c-0.4,3.4-1.6,6.8-1.5,10.3c0.2,2.8,2.9,4.3,5.4,4.7
		c30.4,7,62.3,6.9,92.7-0.1c2.4-0.4,4.2-2.1,5.2-4.3c0-3.3-1-6.5-1.3-9.8C140.1,127.2,105.7,127.5,72.7,120.4z"/>
	<path class="st1" d="M210.8,179.7c0.4-4.1-1.8-9.5,2.6-12.2c0.3,4.4,0.1,8.7,0.2,13.1c0.4,3.4,5.6,6.2,2.7,9.5
		c-2.4-2.9-3.8-7.2-7.6-8.6c-3.2-1.5-6.6-2.9-9.7-4.5c0.8-0.3,2.4-1,3.2-1.3C205,176.8,207.9,178.4,210.8,179.7z"/>
	<path class="st1" d="M36.9,171.2c3.6,2.1,10.6,3,9.8,8.5c0.2,2.2-2.2,3-3.6,4.2c0.7,2.8,1.4,6.8-2,8.3c-4.3,1.5-8.3-1.6-12.2-3.1
		C31.3,183,34.4,177.3,36.9,171.2 M38.2,174.4c-0.7,1.8-1.5,3.7-2.1,5.5c2.4,1,4.8,1.8,7.4,1.6c0.1-1.4,0.2-2.8,0.1-4.1
		C42.1,176,40.1,175.3,38.2,174.4 M34.9,181.9c-0.9,2.1-1.9,4.1-2.7,6.2c2.8,0.9,7.5,3.6,9.1-0.3C41.7,184.2,37.4,183.2,34.9,181.9z
		"/>
	<path class="st1" d="M59.8,183c0.7-0.3,2-1,2.7-1.4c-1.7,6.5-4.5,12.7-6.5,19.1c-0.7-0.1-2-0.4-2.7-0.6
		C55.6,194.5,57.3,188.6,59.8,183z"/>
	<path class="st1" d="M185,183.4c0.7-0.1,2-0.2,2.7-0.3c2.3,5,4.6,9.9,7,14.8c3.1-1.4,6.2-2.9,9.6-3.4c-2.4,4-7.3,4.9-11.1,6.9
		C190.6,195.3,187.6,189.4,185,183.4z"/>
	<path class="st1" d="M69.3,205.6c1.9-6.5,3.2-13.2,5.4-19.5c1.1,0.9,3,1.1,3.5,2.6c1.9,5.6,3.6,11.3,5.9,16.7
		c1.3-5,2.6-10,3.8-15.1c0.9,0.1,1.9,0.1,2.8,0.2c-1.9,6.5-3.2,13.2-5.5,19.6c-1.2-1-2.9-1.7-3.4-3.3c-2.2-5.4-3.7-11-5.9-16.3
		c-1.3,5.1-2.7,10.1-3.8,15.1C71.2,205.7,70.2,205.6,69.3,205.6z"/>
	<path class="st1" d="M162.6,190.6c6.5-4,15.6,1.8,15,9.3c0.4,7.6-9,12.3-15.2,8.7C155.5,205.2,155.4,193.8,162.6,190.6
		 M164.4,192.4c-7,2.5-5.1,14.9,2.5,15c6.6,0.8,10.1-7.8,6.1-12.5C171.3,192,167.5,191.7,164.4,192.4z"/>
	<path class="st1" d="M106.6,193.8c3.6-0.9,7.9-0.8,10.8,1.8c4.6,4.1,4.3,12.4-0.7,16c-4.1,3.2-10.5,2.5-14-1.4
		C98.2,205.3,100.1,196,106.6,193.8 M108.2,195.8c-5,1.4-6.2,7.7-4.2,11.9c2,3.3,6.8,4.6,10.1,2.5c3.5-1.8,4.1-6.3,3.3-9.7
		C116.4,196.7,111.9,194.6,108.2,195.8z"/>
	<path class="st1" d="M133.2,194.6c3.2-0.1,6.4-0.4,9.5-0.1c3.6,0.8,5.1,6,2.6,8.7c-2.3,2.4-6,2-9,2.3c-0.1,3.3,1.6,7.3-1.4,9.8
		C133.2,208.6,133.6,201.5,133.2,194.6 M135.7,196.7c0,2.1,0.1,4.1,0.2,6.2c2.2-0.1,4.5-0.1,6.7-0.5c1.5-1,1.1-2.8,1-4.3
		C141.4,195.8,138.3,196.9,135.7,196.7z"/>
</g>
</svg>
